X:1
T:Hail Mighty Victor
T:Hail Mighty Victor
T:Arranged from Gounod by Isaac Meredith
T:Isaac Hickman Meredith, 1903
T:Public Domain Courtesy of the Cyber Hymnal™
T:Public Domain Courtesy of the Cyber Hymnal™
T:Public Domain Courtesy of the Cyber Hymnal™
C:Arranged from Gounod by Isaac Meredith
Z:Public Domain
Z:Courtesy of the Cyber Hymnal™
%%score ( 1 2 ) ( 3 4 )
L:1/8
Q:1/4=115
M:4/4
K:F
V:1 treble 
V:2 treble 
V:3 bass 
V:4 bass 
V:1
 [Fc]4!mf! [Gc]3 [Gc] | [Af]4 [FB]3 [FB] | [EB]2 [FA]2 [EG]2 F2 | c3 (z B) [FA]4 | %4
w: Hail, might- y|Vic- tor! Be-|hold He comes from|out * the|
 [FA]4 [EA]3 [EA] | [Dd]4 G2 [FA]2 | [EB]2 [FA]2 [CG]2 [CF]2 | [Fd]3 [Ec] [Ec]4 | %8
w: grave. Shout, shout|His tri- umph!|Oh, tell a- broad|His power to|
 [Fc]4 [Gc]3 [Gc] | [Af]4 [FB]3 [FB] | [EB]2 [FA]2 [EG]2 F2 | c3 (z B) [FA]4 | [FA]4 [EA]3 [EA] | %13
w: save. Sing, sing|with glad- ness,|pro- claim the news|o’er * land|and sea: He|
 [Dd]4 G2 [FA]2 | [EB]2 [FA]2 [CG]2 [CF]2 | [Fd]3 [Ec] [Ec]4 ||"^Refrain" [CF]6 (E>G) | %17
w: reigns for- ev-|er, great rul- er|o- ver all|is He. *|
 [CF]6 (F>G) | [FA]2 (A>B) [Ac]2 [Ac]2 | [EG]4- [EG][EB][EG][EA] | [CF]6 (E>G) x2 | %21
w: Shout His *|praise, for * us He|came * to die. But|lo, He *|
 [CF]6 (F>G) x2 | [FA]2 [FA]2 [Af]2 [Ge]2 | [Fd]3 [Ge] [Ec]4 |:!f! [CF]4 C2 [CF]>[CG] | %25
w: lives! He *|reigns up- on His|Fa- ther’s throne|on high. Glo- ry,|
 [FA]4 F z [FA]>[FB] | [Fc]2 [Fc]2 [Fd]3 [Fc] | [Fc]4 [FA]2 z2 | [Ec]4 [FA]2 F>[FA] | %29
w: laud, and hon- or|un- to Christ the|Lord be|giv- en. Praise Him!|
 [Ec]4 [FA]2 F>[FA] | [EG]2 [Gc]>[Gd] [Gc]2 [F=B]2 | [Ec]2 z6 |!f! [Ed]4 [Fc]2 [FA]>F | %33
w: all ye peo- ple,|might- y rul- er of|earth|and Heav’n. Praise Him!|
 [Ec]2 [EB]2 [FA]4 | [Fd]3 [Fc] [Fd][Fc][EB][FA] | [GB]2 [FA]2 [EG]4 | %36
w: all ye stars|of night. Praise Him! all ye|shin- ing hosts|
!ff! [CF]3 [A,C] [B,D][CE][DF][EG] | [FA][EG][FA][GB] [Ac]2 [Fd]2 |1 [CF]2 [FA]2 [EG]3 F | %39
w: of light. Oh! that men would|bless and praise His ho- ly|name, Would praise His|
 (F f/f/gfcfAc) :|2 [Fc]2 [Af]2 g3 [Af] || [Af]8 |] %42
w: ho- * * * * * * * *|ly name. praise His|ho-|
V:2
 x8 | x8 | x8 | F2 E2 x5 | x8 | x4 G2 x2 | x8 | x8 | x8 | x8 | x6 F2 | F2 E2 x5 | x8 | x4 G2 x2 | %14
 x8 | x8 || x6 C2 | x6 C2 | x2 F2 x4 | x8 | x6 C2 x2 | x6 C2 x2 | x8 | x8 |: x4 C2 x2 | x4 F x3 | %26
 x8 | x8 | x6 F3/2 x/ | x6 F3/2 x/ | x8 | x8 | x8 | x8 | x8 | x8 | x8 | x8 |1 x7 F | F x7 :|2 %40
 x4 [Ge]3 x || x8 |] %42
V:3
 [F,A,]4 [E,C]3 [E,C] | [D,D]4 [D,B,]3 [D,B,] | [C,G,]2 C2 [B,C]2 [A,C]2 | [G,D]2 [C,C]2 C4 x | %4
 [D,D]4 [C,A,]3 [C,A,] | [B,,F,]4 [B,D]2 [A,C]2 | [G,C]2 [F,C]2 [E,C]2 [D,A,]2 | %7
 [G,=B,]3 [C,C] [C,C]4 | [F,A,]4 [E,C]3 [E,C] | [D,D]4 [D,B,]3 [D,B,] | %10
 [C,G,]2 [F,C]2 [B,C]2 [A,C]2 | [G,D]2 [C,C]2 C4 x | [D,D]4 [C,A,]3 [C,A,] | %13
 [B,,F,]4 [B,D]2 [A,C]2 | [G,C]2 [F,C]2 [E,C]2 [D,A,]2 | [G,=B,]3 [C,C] [C,C]4 || (z2 C,2) A,2 x2 | %17
 z2 C,2 A,2 x2 | C2 [F,C]2 [C,F]2 F2 | (z2 B,)D B,C x2 | (z2 A,2) x6 | (z2 [A,C]2) x6 | %22
 [G,C]2 C2 [E,C]2 [D,A,]2 | [G,=B,]3 [C,C] [C,C]4 |: [F,A,]4 [F,A,]2 [F,A,]>[F,B,] | %25
 [F,C]4 [F,A,] z [F,C]>[G,C] | [A,C]2 [A,C]2 B,3 [A,C] | [A,C]4 [F,C]2 z2 | %28
 [C,C]4 [F,C]2 [A,C]>[F,C] | [C,C]4 [F,C]2 [A,C]>[F,C] | [G,C]2 [G,E]>[G,E] [G,E]2 [G,D]2 | %31
 ([C,C]2 C>)C (C2 C2) | [C,B,]4 [C,A,]2 [C,C]>[C,A,] | [C,G,]2 [C,C]2 [F,C]4 | %34
 B,3 [A,C] B,[A,C][G,C][F,C] | [E,C]2 [F,C]2 [C,C]4 | [F,A,]3 [A,,C,] [B,,D,][C,E,][D,F,][E,G,] | %37
 [F,A,][E,G,][F,A,][G,B,] [A,C]2 [B,,B,]2 |1 [C,A,]2 [C,C]2 [C,B,]3 [F,A,] | %39
 ([F,A,] D/D/AFCFA,C) :|2 [C,A,]2 [C,C]2 [C,C]3 [F,C] || [F,C]8 |] %42
V:4
 x8 | x8 | x8 | x4 (F,2 E,2) x | x8 | x8 | x8 | x8 | x8 | x8 | x8 | x4 (F,2 E,2) x | x8 | x8 | x8 | %15
 x8 || A,4 F,2 x2 | A,4 F,2 x2 | x8 | B,4- (G,2 C,2) | A,6 (F,2 C,2) | A,6 (F,2 C,2) | %22
 x2 (F,E,) x4 | x8 |: x8 | x8 | x4 B,3 x | x8 | x8 | x8 | x8 | x2 (C>C C2) C2 | x8 | x8 | B,3 x5 | %35
 x8 | x8 | x8 |1 x8 | x8 :|2 x8 || x8 |] %42

